assets/img/lunch-svg.svg

<svg
                            viewBox="0 0 56 54"
                            fill="none"
                            xmlns="http://www.w3.org/2000/svg"
                          >
                            <path
                              d="M28 7.59374C32.9508 7.59044 37.7285 9.35004 41.4165 12.535L42.5835 11.2776C38.5728 7.81855 33.3808 5.90625 28 5.90625C22.6192 5.90625 17.4272 7.81855 13.4165 11.2776L14.5835 12.535C18.2715 9.35 23.0492 7.5904 28 7.59374V7.59374Z"
                              fill="#59882B"
                            />
                            <path
                              d="M28 46.4062C25.1449 46.4051 22.3226 45.8187 19.7204 44.6858C17.1182 43.553 14.7955 41.8997 12.9062 39.8354L11.5938 40.9522C13.6466 43.1966 16.1712 44.9941 18.9999 46.2254C21.8285 47.4566 24.8965 48.0934 28 48.0934C31.1035 48.0934 34.1715 47.4566 37.0001 46.2254C39.8288 44.9941 42.3534 43.1966 44.4062 40.9522L43.0938 39.8354C41.2045 41.8997 38.8818 43.553 36.2796 44.6858C33.6773 45.8186 30.8551 46.405 28 46.4062V46.4062Z"
                              fill="#59882B"
                            />
                            <path
                              d="M42.6693 24.6085C42.8063 25.3988 42.8751 26.1988 42.875 27.0001C42.8763 28.4585 42.6461 29.9085 42.1924 31.2997C41.8722 30.9124 41.4685 30.5969 41.0092 30.3751C39.8367 29.8037 38.5964 29.3721 37.3157 29.0901C38.9062 27.7252 39.9263 25.8482 40.1851 23.8104C40.4438 21.7726 39.9234 19.7137 38.7213 18.0192C37.5192 16.3247 35.7178 15.1108 33.6544 14.6048C31.591 14.0987 29.4071 14.3353 27.5115 15.2701C27.0234 14.8625 26.4387 14.5771 25.8092 14.4389C25.1796 14.3007 24.5245 14.314 23.9015 14.4777C23.2785 14.6413 22.7069 14.9502 22.237 15.3771C21.767 15.8041 21.4132 16.336 21.2068 16.9259C20.643 16.8366 20.0658 16.8665 19.5152 17.0135C18.9646 17.1606 18.4537 17.4213 18.0179 17.7776C17.5821 18.1339 17.2318 18.5773 16.9913 19.077C16.7508 19.5768 16.6258 20.121 16.625 20.672C16.6245 21.1717 16.7268 21.6666 16.9261 22.1279C16.8748 22.1541 16.8223 22.1807 16.7692 22.2071C16.2784 22.4532 15.722 22.7322 15.327 23.2555C14.935 23.7748 14.831 24.3701 14.7392 24.8953C14.706 25.1205 14.6568 25.3432 14.5917 25.5618C14.5144 25.7647 14.4224 25.962 14.3163 26.1524C14.0656 26.6333 13.7812 27.1784 13.7812 27.8438C13.7812 28.5092 14.0656 29.0543 14.3163 29.5352C14.4224 29.7256 14.5144 29.923 14.5916 30.1259C14.6567 30.3444 14.7059 30.5671 14.739 30.7922C14.8309 31.3175 14.935 31.9129 15.327 32.4324C15.722 32.9556 16.2786 33.2346 16.7692 33.4807C16.9787 33.579 17.1809 33.6913 17.3741 33.8169C17.5543 33.9535 17.7242 34.102 17.8828 34.2615C18.2784 34.6387 18.7269 35.066 19.3735 35.2685C19.9975 35.4639 20.6123 35.3762 21.1548 35.2989C21.3928 35.2587 21.6335 35.2345 21.875 35.2266C22.1165 35.2344 22.3572 35.2585 22.5952 35.2987C22.6462 35.3059 22.6977 35.3132 22.7499 35.3204C22.5867 35.5763 22.4678 35.8562 22.3979 36.149C22.3163 36.4595 22.3082 36.7838 22.3741 37.0978C22.44 37.4118 22.5783 37.7075 22.7788 37.963C23.597 38.985 25.1699 39.2566 26.5237 38.6064C28.0682 37.8568 29.7734 37.4665 31.5026 37.4669C33.2317 37.4672 34.9367 37.8582 36.4809 38.6085C36.5307 38.6324 36.5807 38.655 36.631 38.6764C34.1143 40.4144 31.0956 41.3474 28 41.3438C19.798 41.3438 13.125 34.9093 13.125 27.0001C13.125 19.0909 19.798 12.6563 28 12.6563C31.2599 12.6462 34.4313 13.6786 37.0179 15.5918C39.5512 17.4616 41.3995 20.0623 42.2938 23.0153L43.9752 22.5474C42.9761 19.2472 40.9108 16.3405 38.0799 14.2506C35.1888 12.1118 31.6439 10.9577 28 10.9688C18.833 10.9688 11.375 18.1604 11.375 27.0001C11.375 35.8397 18.833 43.0313 28 43.0313C32.276 43.0343 36.3875 41.4429 39.4747 38.59C39.7629 38.4306 40.0159 38.2183 40.2195 37.9651C40.3063 37.8575 40.3816 37.7417 40.4442 37.6195C43.1407 34.6936 44.6285 30.9144 44.625 27.0001C44.6252 26.1052 44.5483 25.2118 44.3953 24.3292L42.6693 24.6085ZM41.0594 32.8068C41.0802 32.8755 41.0857 32.9478 41.0756 33.0187C41.0655 33.0897 41.0399 33.1578 41.0006 33.2186C40.7018 33.5919 40.011 33.6651 39.4282 33.3858C36.6957 32.0601 33.5619 31.7194 30.5919 32.425L30.5756 32.4258V32.4289C29.6502 32.6496 28.7537 32.9703 27.903 33.3848C27.319 33.6654 26.6276 33.5924 26.3267 33.2166C26.2879 33.1559 26.2628 33.0881 26.253 33.0174C26.2432 32.9468 26.2489 32.8749 26.2697 32.8066C26.3353 32.5243 26.5906 32.133 27.1095 31.8805C29.143 30.8934 31.388 30.3792 33.6647 30.3792C35.9414 30.3792 38.1864 30.8934 40.2199 31.8805C40.7384 32.1331 40.9937 32.5245 41.0594 32.8068ZM38.5 22.7813C38.5025 24.0026 38.1603 25.2016 37.5101 26.2497C36.8599 27.2978 35.9262 28.1556 34.8091 28.7311C33.0631 28.6132 31.3088 28.7658 29.6128 29.1831C29.8337 28.7679 29.9553 28.3103 29.9687 27.8438C29.9687 27.1784 29.6844 26.6334 29.4337 26.1524C29.3276 25.9621 29.2356 25.7647 29.1584 25.5618C29.1208 25.445 29.0906 25.3261 29.0678 25.2058C29.6481 25.7464 30.4044 26.0769 31.2084 26.1414C32.0125 26.2058 32.815 26.0003 33.4799 25.5596C34.1448 25.1189 34.6314 24.4702 34.8571 23.7232C35.0828 22.9762 35.0338 22.177 34.7184 21.4609C34.403 20.7447 33.8405 20.1558 33.1264 19.7937C32.4122 19.4316 31.5903 19.3187 30.7997 19.4741C30.0091 19.6295 29.2985 20.0436 28.7883 20.6463C28.2781 21.249 27.9996 22.0033 28 22.7813C28 22.7943 28 22.8073 28 22.8202C27.6853 22.5795 27.3433 22.3738 26.9806 22.2072C26.771 22.1089 26.5688 21.9965 26.3756 21.8709C26.3193 21.8314 26.262 21.7859 26.2036 21.7361C26.7168 21.5681 27.1885 21.2997 27.5891 20.9477C27.9898 20.5957 28.3108 20.1678 28.532 19.6907C28.7532 19.2136 28.8699 18.6976 28.8747 18.175C28.8796 17.6524 28.7725 17.1344 28.5602 16.6536C29.4809 16.2407 30.4846 16.0283 31.5 16.0313C33.3559 16.0333 35.1351 16.7451 36.4474 18.0106C37.7597 19.276 38.4979 20.9917 38.5 22.7813V22.7813ZM29.75 22.7813C29.75 22.4476 29.8526 22.1213 30.0449 21.8438C30.2372 21.5663 30.5105 21.35 30.8303 21.2223C31.1501 21.0946 31.5019 21.0611 31.8414 21.1263C32.1809 21.1914 32.4927 21.3521 32.7374 21.5881C32.9822 21.8241 33.1488 22.1248 33.2164 22.4521C33.2839 22.7795 33.2492 23.1188 33.1168 23.4271C32.9843 23.7355 32.76 23.999 32.4722 24.1844C32.1845 24.3699 31.8461 24.4688 31.5 24.4688C31.036 24.4683 30.5912 24.2903 30.2632 23.974C29.9351 23.6576 29.7505 23.2287 29.75 22.7813V22.7813ZM24.9375 16.0313C25.3701 16.0313 25.7931 16.155 26.1528 16.3868C26.5125 16.6186 26.7929 16.948 26.9585 17.3335C27.1241 17.7189 27.1674 18.143 27.083 18.5522C26.9986 18.9614 26.7902 19.3373 26.4843 19.6323C26.1784 19.9273 25.7886 20.1282 25.3643 20.2095C24.9399 20.2909 24.5001 20.2492 24.1004 20.0895C23.7007 19.9299 23.359 19.6595 23.1187 19.3126C22.8783 18.9657 22.75 18.5579 22.75 18.1407C22.7507 17.5815 22.9813 17.0453 23.3914 16.6499C23.8015 16.2544 24.3575 16.032 24.9375 16.0313V16.0313ZM20.5625 18.5626C20.7197 18.5624 20.8764 18.5784 21.0301 18.6105C21.0984 19.1349 21.2794 19.6399 21.5615 20.093C21.8437 20.5462 22.2208 20.9377 22.6687 21.2423C22.5586 21.6203 22.3413 21.9612 22.0412 22.2266C21.7412 22.4919 21.3702 22.6713 20.9702 22.7444C20.5702 22.8175 20.1569 22.7816 19.7769 22.6405C19.3969 22.4995 19.0653 22.259 18.8194 21.9461C18.5734 21.6332 18.4229 21.2603 18.3848 20.8694C18.3467 20.4785 18.4225 20.0851 18.6037 19.7335C18.7848 19.3818 19.0641 19.086 19.4102 18.8791C19.7563 18.6722 20.1553 18.5626 20.5625 18.5626V18.5626ZM21.875 33.5391C21.5477 33.5457 21.2214 33.5758 20.8987 33.6293C20.5124 33.6844 20.1477 33.7365 19.9143 33.6633C19.6628 33.5844 19.3958 33.3303 19.1135 33.0612C18.8936 32.8411 18.6565 32.6376 18.4043 32.4524C18.1413 32.276 17.8647 32.1192 17.577 31.9834C17.2263 31.8076 16.895 31.6414 16.7425 31.4393C16.5926 31.2407 16.5307 30.8864 16.4651 30.5111C16.4191 30.2042 16.3494 29.901 16.2565 29.6041C16.1533 29.3194 16.0275 29.0428 15.8803 28.7767C15.7006 28.4334 15.5312 28.1089 15.5312 27.8438C15.5312 27.5788 15.7006 27.2542 15.8798 26.9104C16.0272 26.6444 16.1529 26.3678 16.2561 26.083C16.349 25.7861 16.4187 25.4829 16.4648 25.176C16.5304 24.801 16.5922 24.4469 16.742 24.2479C16.8952 24.0457 17.2259 23.8796 17.5766 23.7038C17.7003 23.6417 17.8258 23.5788 17.9512 23.511C18.4146 23.9078 18.9686 24.1934 19.5682 24.3447C20.1677 24.4959 20.7959 24.5084 21.4014 24.3813C22.007 24.2541 22.5728 23.9907 23.0528 23.6127C23.5328 23.2347 23.9134 22.7527 24.1637 22.206C24.3294 22.3372 24.4873 22.4774 24.6366 22.6259C24.8566 22.8459 25.0937 23.0495 25.3458 23.2347C25.6089 23.4111 25.8855 23.5679 26.1732 23.7038C26.5239 23.8796 26.8552 24.0457 27.0077 24.2479C27.1576 24.4465 27.2195 24.8007 27.2851 25.176C27.3311 25.4829 27.4009 25.7861 27.4937 26.083C27.5969 26.3677 27.7227 26.6444 27.87 26.9104C28.0494 27.2543 28.2187 27.5788 28.2187 27.8438C28.2187 28.1089 28.0494 28.4335 27.8702 28.7772C27.7229 29.0432 27.5971 29.3198 27.4939 29.6045C27.4635 29.6948 27.4361 29.7884 27.4101 29.8912C27.0421 30.0388 26.6789 30.1999 26.3207 30.3743C25.4186 30.8131 24.7615 31.5838 24.5625 32.4358C24.504 32.6804 24.4861 32.9324 24.5092 33.1824C24.2738 33.4039 24.0498 33.5964 23.8361 33.6633C23.6024 33.7364 23.2377 33.6844 22.8517 33.6293C22.5289 33.5758 22.2025 33.5456 21.875 33.5391V33.5391ZM37.2661 37.1001C35.4782 36.232 33.5044 35.7797 31.5026 35.7793C29.5009 35.7789 27.5268 36.2305 25.7386 37.0979C25.1547 37.3784 24.4631 37.3055 24.1624 36.9291C24.1236 36.8684 24.0985 36.8005 24.0886 36.7299C24.0788 36.6592 24.0845 36.5874 24.1053 36.519C24.1709 36.2368 24.4262 35.8455 24.945 35.593C25.3326 35.4041 25.7319 35.2308 26.1372 35.0756C26.5535 35.2118 26.9939 35.2658 27.4323 35.2344C27.8706 35.2029 28.2979 35.0866 28.6886 34.8924C29.3795 34.5557 30.1054 34.2905 30.8542 34.1014C31.3446 34.0805 31.8357 34.0834 32.3257 34.11C34.3216 34.2164 36.2728 34.7215 38.0557 35.5931C38.574 35.8455 38.8291 36.2365 38.895 36.5192C38.9125 36.591 38.918 36.6651 38.9112 36.7386C38.7632 36.8928 38.6118 37.0437 38.457 37.1914C38.2623 37.2538 38.0565 37.2779 37.852 37.2622C37.6474 37.2465 37.4482 37.1914 37.2661 37.1001Z"
                              fill="#59882B"
                            />
                            <path
                              d="M52.5 4.21875V12.6563H49.875V4.21875H48.125V12.6563H45.5V4.21875H43.75V18.1406C43.751 18.8373 44.0069 19.5113 44.4728 20.0438C44.9386 20.5764 45.5845 20.9332 46.2965 21.0516L45.5057 46.2141C45.502 46.2774 45.5 46.3417 45.5 46.406C45.5 47.3011 45.8687 48.1596 46.5251 48.7925C47.1815 49.4255 48.0717 49.781 49 49.781C49.9283 49.781 50.8185 49.4255 51.4749 48.7925C52.1313 48.1596 52.5 47.3011 52.5 46.406C52.5 46.3417 52.498 46.2776 52.4943 46.2141L52.3141 40.4745L50.5649 40.5255L50.7456 46.2772C50.7456 46.2856 50.7463 46.294 50.7468 46.3025C50.7489 46.3367 50.7501 46.3714 50.7501 46.4063C50.7501 46.8538 50.5657 47.283 50.2375 47.5995C49.9094 47.916 49.4642 48.0938 49.0001 48.0938C48.536 48.0938 48.0909 47.916 47.7627 47.5995C47.4345 47.283 47.2501 46.8538 47.2501 46.4063C47.2501 46.3714 47.2513 46.3367 47.2534 46.3025C47.2539 46.294 47.2544 46.2856 47.2546 46.2772L48.0459 21.0938H49.9541L50.5119 38.838L52.261 38.787L51.7032 21.0518C52.4153 20.9335 53.0612 20.5766 53.5272 20.0441C53.9931 19.5115 54.2491 18.8374 54.25 18.1406V4.21875H52.5ZM52.5 18.1406C52.4996 18.4762 52.3612 18.7979 52.1152 19.0352C51.8691 19.2724 51.5355 19.4059 51.1875 19.4063H46.8125C46.4645 19.4059 46.1309 19.2724 45.8848 19.0352C45.6388 18.7979 45.5004 18.4762 45.5 18.1406V14.3438H52.5V18.1406Z"
                              fill="#59882B"
                            />
                            <path
                              d="M9.67422 20.1173C11.3695 18.7135 12.5 15.9302 12.5 12.6562C12.5 7.92492 10.1391 4.21875 7.12502 4.21875C4.11097 4.21875 1.75 7.92492 1.75 12.6562C1.75 15.7711 2.77331 18.4416 4.33256 19.9028L4.13678 26.1307L5.88591 26.1818L6.05095 20.9322C6.66618 21.122 7.32367 21.145 7.95156 20.9988L8.74595 46.2771C8.74595 46.2855 8.74661 46.2939 8.74716 46.3024C8.74924 46.3366 8.75044 46.3713 8.75044 46.4061C8.75044 46.8537 8.56606 47.2829 8.23788 47.5994C7.90969 47.9159 7.46457 48.0936 7.00044 48.0936C6.53631 48.0936 6.09119 47.9159 5.763 47.5994C5.43481 47.2829 5.25044 46.8537 5.25044 46.4061C5.25044 46.3713 5.25164 46.3366 5.25372 46.3024C5.25372 46.2939 5.2547 46.2855 5.25492 46.2771L5.8333 27.8692L4.08417 27.8181L3.50569 46.2143C3.50197 46.2776 3.5 46.3419 3.5 46.4062C3.5 47.3014 3.86875 48.1598 4.52513 48.7927C5.1815 49.4257 6.07174 49.7812 7 49.7812C7.92826 49.7812 8.8185 49.4257 9.47487 48.7927C10.1313 48.1598 10.5 47.3014 10.5 46.4062C10.5 46.3419 10.498 46.2778 10.4943 46.2143L9.67422 20.1173ZM3.5 12.6562C3.5 8.61859 5.37436 5.90625 7.12502 5.90625C8.87567 5.90625 10.75 8.61859 10.75 12.6562C10.75 16.6939 8.87556 19.4062 7.12502 19.4062C5.37447 19.4062 3.5 16.6939 3.5 12.6562Z"
                              fill="#59882B"
                            />
                            <path
                              d="M18.4201 25.8897L17.5452 28.4209L19.2055 28.9545L20.0804 26.4233L18.4201 25.8897Z"
                              fill="#59882B"
                            />
                            <path
                              d="M23.3484 29.5742L20.7234 30.418L21.2768 32.0189L23.9018 31.1751L23.3484 29.5742Z"
                              fill="#59882B"
                            />
                            <path
                              d="M23.2354 25.4543L22.2646 26.8584L24.8896 28.5459L25.8603 27.1418L23.2354 25.4543Z"
                              fill="#59882B"
                            />
                          </svg>

<svg xmlns="http://www.w3.org/2000/svg" viewBox="0 0 56 54" fill="#59882b" xmlns:v="https://vecta.io/nano"><path d="M28 7.594c4.95-.003 9.728 1.756 13.417 4.94l1.167-1.257C38.573 7.82 33.38 5.906 28 5.906s-10.573 1.912-14.583 5.37l1.167 1.257C18.272 9.35 23.05 7.6 28 7.594h0zm0 38.812c-2.855-.001-5.677-.587-8.28-1.72s-4.925-2.786-6.814-4.85l-1.312 1.117c2.053 2.244 4.577 4.042 7.406 5.273a22.57 22.57 0 0 0 9 1.868c3.103 0 6.172-.637 9-1.868s5.353-3.03 7.406-5.273l-1.312-1.117c-1.9 2.064-4.212 3.718-6.814 4.85a20.77 20.77 0 0 1-8.28 1.72h0zM42.67 24.6a13.99 13.99 0 0 1 .205 2.39 13.86 13.86 0 0 1-.683 4.3 3.52 3.52 0 0 0-1.183-.925 16.56 16.56 0 0 0-3.693-1.285 8.35 8.35 0 0 0 2.869-5.28c.26-2.038-.262-4.097-1.464-5.8s-3.004-2.908-5.067-3.414-4.247-.27-6.143.665a3.99 3.99 0 0 0-1.702-.831c-.63-.138-1.285-.125-1.908.04s-1.195.473-1.665.9a3.78 3.78 0 0 0-1.03 1.549 4.06 4.06 0 0 0-1.692.088 4.01 4.01 0 0 0-1.497.764 3.82 3.82 0 0 0-1.027 1.299 3.69 3.69 0 0 0-.366 1.595 3.66 3.66 0 0 0 .301 1.456l-.157.08c-.5.246-1.047.525-1.442 1.048s-.496 1.115-.588 1.64a4.65 4.65 0 0 1-.148.667 4.58 4.58 0 0 1-.275.59c-.25.48-.535 1.026-.535 1.7s.284 1.2.535 1.7a5.21 5.21 0 0 1 .275.59 4.71 4.71 0 0 1 .147.666c.092.525.196 1.12.588 1.64s.952.802 1.442 1.048a5.03 5.03 0 0 1 .605.336c.18.137.35.285.5.445.396.377.844.805 1.5 1.007.624.195 1.24.108 1.78.03a5.38 5.38 0 0 1 .72-.072c.24.008.482.032.72.072l.155.022a2.71 2.71 0 0 0-.352.829 1.93 1.93 0 0 0-.024.95 2.1 2.1 0 0 0 .405.865c.818 1.022 2.4 1.294 3.745.643 1.544-.75 3.25-1.14 4.98-1.14a11.37 11.37 0 0 1 4.978 1.142l.15.068A15.17 15.17 0 0 1 28 41.344c-8.202 0-14.875-6.434-14.875-14.344S19.798 12.656 28 12.656c3.26-.01 6.43 1.022 9.018 2.935 2.533 1.87 4.382 4.47 5.276 7.424l1.68-.468c-1-3.3-3.064-6.207-5.895-8.297-2.9-2.14-6.436-3.293-10.08-3.282-9.167 0-16.625 7.192-16.625 16.03S18.833 43.03 28 43.03c4.276.003 8.388-1.588 11.475-4.44a2.52 2.52 0 0 0 .745-.625 2.01 2.01 0 0 0 .225-.346c2.697-2.926 4.184-6.705 4.18-10.62a15.62 15.62 0 0 0-.23-2.67l-1.726.28zm-1.6 8.198a.49.49 0 0 1 .016.212.5.5 0 0 1-.075.2c-.3.373-1 .447-1.572.167a13.26 13.26 0 0 0-8.836-.961l-.016.001v.003c-.925.22-1.822.54-2.673.956-.584.28-1.275.208-1.576-.168-.04-.06-.064-.13-.074-.2a.49.49 0 0 1 .017-.211c.066-.282.32-.674.84-.926a15.02 15.02 0 0 1 13.11 0c.518.253.774.644.84.926zM38.5 22.78a6.55 6.55 0 0 1-.99 3.468 6.88 6.88 0 0 1-2.701 2.481 16.97 16.97 0 0 0-5.196.452c.22-.415.343-.873.356-1.34 0-.665-.284-1.2-.535-1.7a5.21 5.21 0 0 1-.275-.59 2.96 2.96 0 0 1-.091-.356 3.57 3.57 0 0 0 2.14.936c.803.066 1.607-.14 2.27-.582s1.15-1.1 1.377-1.836a3.26 3.26 0 0 0-.139-2.262c-.315-.716-.878-1.305-1.592-1.667s-1.536-.475-2.327-.32a3.52 3.52 0 0 0-2.01 1.172A3.3 3.3 0 0 0 28 22.781v.04a5.36 5.36 0 0 0-1.019-.613 5.73 5.73 0 0 1-.605-.336c-.056-.04-.114-.085-.172-.135a3.97 3.97 0 0 0 1.385-.788c.4-.352.722-.78.943-1.257a3.68 3.68 0 0 0 .028-3.037 7.13 7.13 0 0 1 2.94-.622c1.856.002 3.635.714 4.947 1.98s2.05 2.98 2.053 4.77h0zm-8.75 0c0-.334.103-.66.295-.937s.466-.494.785-.622a1.81 1.81 0 0 1 1.011-.096 1.77 1.77 0 0 1 .896.462 1.67 1.67 0 0 1 .479.864 1.63 1.63 0 0 1-.1.975 1.7 1.7 0 0 1-.645.757 1.79 1.79 0 0 1-.972.284c-.464-.001-.9-.18-1.237-.495a1.66 1.66 0 0 1-.513-1.193h0zm-4.812-6.75a2.25 2.25 0 0 1 1.215.355 2.13 2.13 0 0 1 .806.947 2.04 2.04 0 0 1 .124 1.219c-.084.4-.293.785-.6 1.08s-.696.496-1.12.577a2.26 2.26 0 0 1-1.264-.12 2.17 2.17 0 0 1-.982-.777 2.06 2.06 0 0 1-.37-1.172 2.07 2.07 0 0 1 .64-1.49 2.24 2.24 0 0 1 1.546-.62h0zm-4.375 2.53a2.3 2.3 0 0 1 .468.048 3.71 3.71 0 0 0 .531 1.483 3.86 3.86 0 0 0 1.107 1.149 2.1 2.1 0 0 1-.628.984 2.22 2.22 0 0 1-1.071.518c-.4.073-.813.037-1.193-.104a2.18 2.18 0 0 1-.957-.694c-.246-.313-.397-.686-.435-1.077a2.04 2.04 0 0 1 .22-1.136 2.14 2.14 0 0 1 .806-.854c.346-.207.745-.317 1.152-.317h0zm1.313 14.976a6.81 6.81 0 0 0-.976.09c-.386.055-.75.107-.984.034-.252-.08-.518-.333-.8-.602-.22-.22-.457-.424-.7-.6a6.6 6.6 0 0 0-.827-.47c-.35-.176-.682-.342-.835-.544s-.212-.553-.277-.928a6.03 6.03 0 0 0-.209-.907c-.103-.285-.23-.56-.376-.827-.18-.343-.35-.668-.35-.933s.17-.6.35-.933a5.8 5.8 0 0 0 .376-.827c.093-.297.163-.6.2-.907.066-.375.127-.73.277-.928s.484-.368.835-.544l.375-.193c.463.397 1.017.682 1.617.834a4.08 4.08 0 0 0 1.833.037c.606-.127 1.17-.4 1.65-.77s.86-.86 1.1-1.407a5.6 5.6 0 0 1 .473.42c.22.22.457.424.7.6a6.6 6.6 0 0 0 .827.47c.35.176.682.342.834.544s.212.553.277.928c.046.307.116.6.2.907a5.76 5.76 0 0 0 .376.827c.18.344.35.668.35.933s-.17.6-.348.933a5.76 5.76 0 0 0-.376.827c-.03.1-.058.184-.084.287a16.63 16.63 0 0 0-1.089.483c-.902.44-1.56 1.2-1.758 2.06a2.3 2.3 0 0 0-.053.747c-.235.22-.46.414-.673.48-.234.073-.598.02-.984-.034a6.8 6.8 0 0 0-.977-.09h0zm15.4 3.56a13.21 13.21 0 0 0-11.527-.002c-.584.28-1.276.208-1.576-.17a.5.5 0 0 1-.074-.199.49.49 0 0 1 .017-.211c.066-.282.32-.673.84-.926a14.84 14.84 0 0 1 1.192-.517 3.39 3.39 0 0 0 1.295.159c.438-.032.866-.148 1.256-.342a11.21 11.21 0 0 1 2.166-.791 14.99 14.99 0 0 1 1.47.01 14.82 14.82 0 0 1 5.73 1.483c.518.252.773.643.84.926a.68.68 0 0 1 .016.22 14.58 14.58 0 0 1-.454.453 1.57 1.57 0 0 1-.605.07c-.205-.017-.404-.07-.586-.162zM52.5 4.22v8.438h-2.625V4.22h-1.75v8.438H45.5V4.22h-1.75v13.92c.001.697.257 1.37.723 1.903s1.112.9 1.824 1.008L45.5 46.406c0 .895.37 1.754 1.025 2.386a3.57 3.57 0 0 0 2.475.99c.928 0 1.82-.355 2.475-1S52.5 47.3 52.5 46.406l-.186-5.932-1.75.05.185 5.88c0 .447-.184.877-.513 1.193s-.773.494-1.237.494-.9-.178-1.237-.494-.513-.746-.513-1.193l.003-.104.001-.025.8-25.183h1.908l.558 17.744 1.75-.05L51.7 21.05c.712-.118 1.358-.475 1.824-1.008s.722-1.207.723-1.904V4.22H52.5zm0 13.922a1.25 1.25 0 0 1-.385.895 1.34 1.34 0 0 1-.928.371h-4.375a1.34 1.34 0 0 1-.928-.371 1.25 1.25 0 0 1-.385-.895v-3.797h7v3.797zM9.674 20.117c1.695-1.404 2.826-4.187 2.826-7.46 0-4.73-2.36-8.437-5.375-8.437S1.75 7.925 1.75 12.656c0 3.115 1.023 5.785 2.583 7.247l-.196 6.228 1.75.05.165-5.25a3.65 3.65 0 0 0 1.901.067l.794 25.278c0 .008.001.017.001.025a1.71 1.71 0 0 1 .003.104c0 .448-.184.877-.513 1.193s-.773.494-1.237.494-.9-.178-1.237-.494-.513-.746-.513-1.193a1.71 1.71 0 0 1 .003-.104c0-.008.001-.017.001-.025l.578-18.408-1.75-.05-.578 18.396a3.28 3.28 0 0 0-.006.192c0 .895.37 1.754 1.025 2.387S6.07 49.78 7 49.78s1.82-.355 2.475-.988S10.5 47.3 10.5 46.406a3.3 3.3 0 0 0-.006-.192l-.82-26.097zM3.5 12.656c0-4.038 1.874-6.75 3.625-6.75s3.625 2.712 3.625 6.75-1.874 6.75-3.625 6.75S3.5 16.694 3.5 12.656zM18.42 25.9l-.875 2.53 1.66.534.875-2.53-1.66-.534zm4.928 3.674l-2.625.844.553 1.6 2.625-.844-.553-1.6zm-.113-4.12l-.97 1.404 2.625 1.688.97-1.404-2.625-1.687z"/></svg>
